X:1866
T:"The Bank Of Ireland"   (reel)   1866
C:after Sg't. James O'Neill
N:added master repeat in "A" part,  replaced plain segno with DS instruction
B:O'Neill's Music Of Ireland (The 1850) Lyon & Healy, Chicago, 1903 edition
Z:FROM O'NEILL'S TO NOTEWORTHY, FROM NOTEWORTHY TO ABC, MIDI AND .TXT BY VINCE
BRENNAN July 2003 (HTTP://WWW.SOSYOURMOM.COM)
I:abc2nwc
M:C|
L:1/8
K:D
(ed)|:cAAB {d}cABG|(EG)DG (EG)DB|{d}cAAB (TRcA)(BG)|[1Addc defd:|[2Addc d2||
(de)|f2fd e2ec|dfed cAAg| TRf2fe e2{f}ed|eaag edd z|eaag ed d z|
fgaf efge|dfed (TRcA)(AG)|(Ad){e}dc (de)fg|(af)ge (df)ed|]
